packages/gestalt/src/icons/pin-hide.svg

<svg width="24" height="24" xmlns="http://www.w3.org/2000/svg"><path fill="#B5B5B5" d="M9.13 6.37c.49.48.49 1.27 0 1.76l-2.61 2.62 2.61 2.62c.49.48.49 1.27 0 1.76-.48.49-1.27.49-1.76 0l-2.62-2.61-2.62 2.61c-.48.49-1.28.49-1.76 0-.49-.49-.49-1.28 0-1.76l2.61-2.62L.37 8.13c-.49-.49-.49-1.28 0-1.76.48-.49 1.28-.49 1.76 0l2.62 2.61 2.62-2.61c.49-.49 1.28-.49 1.76 0zM20.5 8.69c1.49.87 2.5 2.46 2.5 4.31h-4v7.96L18 23l-1-2.04V13h-4c0-1.85 1.01-3.44 2.5-4.31V2.93c-.86-.22-1.5-1-1.5-1.93h8c0 .93-.64 1.71-1.5 1.93v5.76z"/></svg>

<svg width="24" height="24" viewBox="0 0 24 24" xmlns="http://www.w3.org/2000/svg"><path fill="#aeaeae" d="M9.13,6.37 C9.62,6.85 9.62,7.64 9.13,8.13 L6.52,10.75 L9.13,13.37 C9.62,13.85 9.62,14.64 9.13,15.13 C8.65,15.62 7.86,15.62 7.37,15.13 L4.75,12.52 L2.13,15.13 C1.65,15.62 0.85,15.62 0.37,15.13 C-0.12,14.64 -0.12,13.85 0.37,13.37 L2.98,10.75 L0.37,8.13 C-0.12,7.64 -0.12,6.85 0.37,6.37 C0.85,5.88 1.65,5.88 2.13,6.37 L4.75,8.98 L7.37,6.37 C7.86,5.88 8.65,5.88 9.13,6.37 Z M20.50,8.69 C21.99,9.56 23.00,11.15 23.00,13.00 L19.00,13.00 L19.00,20.96 L18.00,23.00 L17.00,20.96 L17.00,13.00 L13.00,13.00 C13.00,11.15 14.01,9.56 15.50,8.69 L15.50,2.93 C14.64,2.71 14.00,1.93 14.00,1.00 L22.00,1.00 C22.00,1.93 21.36,2.71 20.50,2.93 L20.50,8.69 Z"/></svg>
